X: 18412
T: Hunter's House, The
R: reel
M: 4/4
K: Gmajor
|:~B2dB cAFA|~G2BG DGBG|BcdB cAFA|GBAG FDCE|
DG~G2 AG~G2|BGAF GABc|defg agfd|cAFA ~G3A:|
~B2gB aBgB|~B2gf edcB|Aa{{b}ag ~a3f|dfaf gfed|
~B2gB aBgB|~B2gf edcB|cBAg fgaf|gdBd cAFA|
~B2bB aBgB|~B2gf edcB|Aa~a2 bgaf|dfaf gfed|
Bdgb afgd|Bdgf edcB|cBAg fdfa|gdBd cAFA||

